src/app/components/images/Logo3.svg

<svg width="37" height="24" viewBox="0 0 37 24" fill="none" xmlns="http://www.w3.org/2000/svg">
<g clip-path="url(#clip0_1_115)">
<path d="M33.9319 0.749998C33.9319 1.16421 34.2676 1.5 34.6819 1.5H35.4319C35.8461 1.5 36.1819 1.16421 36.1819 0.749998C36.1819 0.335787 35.8461 0 35.4319 0H34.6819C34.2676 0 33.9319 0.335787 33.9319 0.749998Z" fill="#FEFAEE"/>
<path d="M12.1819 24H15.8253L14.7646 22.9393C14.4833 22.658 14.1018 22.5 13.704 22.5H12.1819C6.38288 22.5 1.68188 17.799 1.68188 12C1.68188 6.201 6.38288 1.50001 12.1819 1.5H24.1819C29.9809 1.5 34.6819 6.201 34.6819 12C34.6819 17.799 29.9809 22.5 24.1819 22.5H19.6929C19.0962 22.5 18.5239 22.2629 18.1019 21.841L16.8593 20.5984C16.156 19.8951 15.2022 19.5 14.2076 19.5H12.1819C8.03972 19.5 4.68188 16.1422 4.68188 12C4.68188 7.85784 8.03972 4.5 12.1819 4.5H24.1819C28.324 4.5 31.6819 7.85784 31.6819 12C31.6819 16.1422 28.324 19.5 24.1819 19.5H21.2995C20.7028 19.5 20.1305 19.2629 19.7085 18.841L18.4659 17.5984C17.7626 16.8951 16.8088 16.5 15.8142 16.5H12.1819C9.69662 16.5 7.68189 14.4853 7.68189 12C7.68189 9.51474 9.69662 7.5 12.1819 7.5H24.1819C26.6671 7.5 28.6819 9.51474 28.6819 12C28.6819 14.455 26.716 16.4508 24.2726 16.4991L24.2721 16.5H23.1745C22.5778 16.5 22.0055 16.2629 21.5835 15.841L20.3409 14.5984C19.7638 14.0213 19.0181 13.6517 18.2196 13.5377L18.1819 13.5H12.1819C11.3535 13.5 10.6819 12.8284 10.6819 12C10.6819 11.1716 11.3535 10.5 12.1819 10.5H24.1819C25.0103 10.5 25.6819 11.1716 25.6819 12C25.6819 12.8284 25.0103 13.5 24.1819 13.5H21.1819L22.2426 14.5607C22.5238 14.842 22.9054 15 23.3032 15H24.1819C25.8387 15 27.1819 13.6568 27.1819 12C27.1819 10.3432 25.8387 9 24.1819 9H12.1819C10.525 9 9.18188 10.3432 9.18188 12C9.18188 13.6568 10.525 15 12.1819 15H17.6892C18.286 15 18.8583 15.2371 19.2802 15.659L20.5229 16.9016C21.2262 17.6049 22.18 18 23.1745 18H24.5569V17.9885C27.6959 17.7949 30.1819 15.1877 30.1819 12C30.1819 8.68632 27.4956 6 24.1819 6H12.1819C8.86821 6 6.18188 8.68632 6.18188 12C6.18188 15.3137 8.86821 18 12.1819 18H15.8142C16.411 18 16.9833 18.2371 17.4052 18.659L18.6479 19.9016C19.3512 20.6049 20.305 21 21.2995 21H24.1819C29.1525 21 33.1819 16.9706 33.1819 12C33.1819 7.02942 29.1525 3 24.1819 3H12.1819C7.21131 3 3.18188 7.02942 3.18188 12C3.18188 16.9706 7.21131 21 12.1819 21H14.2076C14.8044 21 15.3766 21.2371 15.7986 21.659L17.0413 22.9016C17.7445 23.6049 18.6984 24 19.6929 24H24.1819C30.8093 24 36.1819 18.6274 36.1819 12C36.1819 5.37258 30.8093 -5.79387e-07 24.1819 0L12.1819 2.47958e-06C5.55446 3.05897e-06 0.181884 5.37259 0.181885 12C0.181885 18.6274 5.55447 24 12.1819 24Z" fill="#FEFAEE"/>
</g>
<defs>
<clipPath id="clip0_1_115">
<rect width="36" height="24" fill="white" transform="translate(0.181885)"/>
</clipPath>
</defs>
</svg>

<svg xmlns="http://www.w3.org/2000/svg" width="37" height="24" fill="none" viewBox="0 0 37 24"><g fill="#fefaee" clip-path="url(#a)"><path d="M33.932.75c0 .414.336.75.75.75h.75a.75.75 0 0 0 0-1.5h-.75a.75.75 0 0 0-.75.75M12.182 24h3.643l-1.06-1.06a1.5 1.5 0 0 0-1.061-.44h-1.522c-5.8 0-10.5-4.701-10.5-10.5s4.7-10.5 10.5-10.5h12c5.799 0 10.5 4.701 10.5 10.5s-4.701 10.5-10.5 10.5h-4.49a2.25 2.25 0 0 1-1.59-.659l-1.243-1.243a3.75 3.75 0 0 0-2.651-1.098h-2.026a7.5 7.5 0 1 1 0-15h12a7.5 7.5 0 0 1 0 15h-2.883a2.25 2.25 0 0 1-1.59-.659l-1.243-1.243a3.75 3.75 0 0 0-2.652-1.098h-3.632a4.5 4.5 0 1 1 0-9h12a4.5 4.5 0 0 1 .09 9h-1.098a2.25 2.25 0 0 1-1.59-.659l-1.243-1.243a3.75 3.75 0 0 0-2.121-1.06l-.038-.038h-6a1.5 1.5 0 0 1 0-3h12a1.5 1.5 0 0 1 0 3h-3l1.06 1.06a1.5 1.5 0 0 0 1.061.44h.879a3 3 0 0 0 0-6h-12a3 3 0 0 0 0 6h5.507c.597 0 1.17.237 1.591.659l1.243 1.243A3.75 3.75 0 0 0 23.174 18h1.383v-.012A6 6 0 0 0 24.182 6h-12a6 6 0 0 0 0 12h3.632c.597 0 1.17.237 1.591.659l1.243 1.243A3.75 3.75 0 0 0 21.299 21h2.883a9 9 0 1 0 0-18h-12a9 9 0 1 0 0 18h2.026a2.25 2.25 0 0 1 1.59.659l1.243 1.243A3.75 3.75 0 0 0 19.693 24h4.489c6.627 0 12-5.373 12-12s-5.373-12-12-12h-12c-6.628 0-12 5.373-12 12s5.372 12 12 12"/></g><defs><clipPath id="a"><path fill="#fff" d="M.182 0h36v24h-36z"/></clipPath></defs></svg>
